!!!OTL: "Unserm Koenige" DIE WIR HIER DEN REIGEN SCHLINGEN
!!!ARE: Europa, Mitteleuropa, Deutschland
!!!SCT: Z1128
!!!YEM: Copyright 1995, estate of Helmut Schaffrath.
**kern
*ICvox
*Ivox
*M4/4
*k[b-]
*F:
{4.f
8g
=1
4a
4g
4b-
4a
=2
8g
8e
4f}
{4dd
4cc
=3
4b-
4a
4g
8a
8f
=4
2cc}
{4.f
8g
=5
4a
4g
4b-
4a
=6
8g
8e
4f}
{4dd
4cc
=7
4b-
4a
4g
8a
8f
=8
2cc}
{4g
4a
=9
8g
8e
4c
4b-
4a
=10
8g
8e
4c}
{4cc
4b-
=11
4.a
8a
4bn
4bn
=12
2cc}
{4.ff
8ee
=13
4dd
4cc
4.dd
8cc
=14
4b-
4a}
{4.g
8b-
=15
8cc
8dd
8b-
8g
4f
8a
8g
=16
2f}
==
!!!AGN: Vaterland und Wehr
!!!ONB: ESAC (Essen Associative Code) Database: ZUCCAL
!!!AMT: simple quadruple
!!!AIN: vox
!!!EED: Helmut Schaffrath
!!!EEV: 1.0
*-
